assets/img/braze_icons/dots-horizontal.svg

<svg fill="none" height="24" viewBox="0 0 24 24" width="24" xmlns="http://www.w3.org/2000/svg"><g clip-rule="evenodd" fill="#801ed7" fill-rule="evenodd"><path d="m10 12c0-1.1046.8954-2 2-2s2 .8954 2 2-.8954 2-2 2-2-.8954-2-2z"/><path d="m17 12c0-1.1046.8954-2 2-2s2 .8954 2 2-.8954 2-2 2-2-.8954-2-2z"/><path d="m3 12c0-1.1046.89543-2 2-2s2 .8954 2 2-.89543 2-2 2-2-.8954-2-2z"/></g></svg>

<svg width="24" height="24" viewBox="0 0 24 24" fill="none" xmlns="http://www.w3.org/2000/svg">
<path fill-rule="evenodd" clip-rule="evenodd" d="M10 12C10 10.8954 10.8954 10 12 10C13.1046 10 14 10.8954 14 12C14 13.1046 13.1046 14 12 14C10.8954 14 10 13.1046 10 12Z" fill="#801ED7"/>
<path fill-rule="evenodd" clip-rule="evenodd" d="M17 12C17 10.8954 17.8954 10 19 10C20.1046 10 21 10.8954 21 12C21 13.1046 20.1046 14 19 14C17.8954 14 17 13.1046 17 12Z" fill="#801ED7"/>
<path fill-rule="evenodd" clip-rule="evenodd" d="M3 12C3 10.8954 3.89543 10 5 10C6.10457 10 7 10.8954 7 12C7 13.1046 6.10457 14 5 14C3.89543 14 3 13.1046 3 12Z" fill="#801ED7"/>
</svg>
